resources/svg/sort-high-to-low-o.svg

<svg xmlns="http://www.w3.org/2000/svg" viewBox="0 0 15 15" fill="none"><path d="M11.5 0.5H12C12 0.223858 11.7761 0 11.5 0V0.5ZM12.5 11.5L12.9743 11.6581L12.5 11.5ZM12.9819 10.0543L12.5076 9.89614L12.9819 10.0543ZM4.5 14.5L4.14645 14.8536C4.24021 14.9473 4.36739 15 4.5 15C4.63261 15 4.75978 14.9473 4.85355 14.8536L4.5 14.5ZM10 1H11.5V0H10V1ZM11 0.5V6.5H12V0.5H11ZM10 7H13V6H10V7ZM11.8617 8H11V9H11.8617V8ZM12.9743 11.6581L13.4563 10.2124L12.5076 9.89614L12.0257 11.3419L12.9743 11.6581ZM11 12H12.5V11H11V12ZM11.9743 14.6581L12.9743 11.6581L12.0257 11.3419L11.0257 14.3419L11.9743 14.6581ZM9 10C9 11.1046 9.89543 12 11 12V11C10.4477 11 10 10.5523 10 10H9ZM11 8C9.89543 8 9 8.89543 9 10H10C10 9.44772 10.4477 9 11 9V8ZM11.8617 9C12.3264 9 12.6545 9.45527 12.5076 9.89614L13.4563 10.2124C13.8191 9.12397 13.0089 8 11.8617 8V9ZM4.85355 14.8536L7.85355 11.8536L7.14645 11.1464L4.14645 14.1464L4.85355 14.8536ZM4.85355 14.1464L1.85355 11.1464L1.14645 11.8536L4.14645 14.8536L4.85355 14.1464ZM4 0V14.5H5V0H4Z" fill="black"/></svg>

<svg xmlns="http://www.w3.org/2000/svg" viewBox="0 0 15 15" fill="none"><path d="M11.5.5h.5a.5.5 0 00-.5-.5v.5zm1 11l.474.158-.474-.158zm.482-1.446l-.474-.158.474.158zM4.5 14.5l-.354.354a.5.5 0 00.708 0L4.5 14.5zM10 1h1.5V0H10v1zm1-.5v6h1v-6h-1zM10 7h3V6h-3v1zm1.862 1H11v1h.862V8zm1.112 3.658l.482-1.446-.948-.316-.482 1.446.948.316zM11 12h1.5v-1H11v1zm.974 2.658l1-3-.948-.316-1 3 .948.316zM9 10a2 2 0 002 2v-1a1 1 0 01-1-1H9zm2-2a2 2 0 00-2 2h1a1 1 0 011-1V8zm.862 1a.68.68 0 01.646.896l.948.316A1.68 1.68 0 0011.862 8v1zm-7.008 5.854l3-3-.708-.708-3 3 .708.708zm0-.708l-3-3-.708.708 3 3 .708-.708zM4 0v14.5h1V0H4z" fill="currentColor"/></svg>
